img/svg/planes.svg

<?xml version="1.0" encoding="utf-8"?><!DOCTYPE svg PUBLIC "-//W3C//DTD SVG 1.1//EN" "http://www.w3.org/Graphics/SVG/1.1/DTD/svg11.dtd"><svg version="1.1" baseProfile="full" xmlns="http://www.w3.org/2000/svg" xmlns:xlink="http://www.w3.org/1999/xlink" xmlns:ev="http://www.w3.org/2001/xml-events"   height="32px"   width="28px" ><path fill="rgb( 255, 102, 0 )" d="M26.4589999999999,21.051 C26.4589999999999,21.051 26.4589999999999,21.282 26.4589999999999,21.282 C26.4589999999999,21.282 26.4589999999999,22.048 26.4589999999999,22.048 C26.4589999999999,22.048 26.4589999999999,22.716 26.4589999999999,22.716 C26.4589999999999,22.716 27.574,26.12 27.574,26.12 C27.574,26.12 26.304,26.12 26.304,26.12 C26.304,26.12 24.3630000000001,23.271 24.3630000000001,23.271 C24.308,23.28 24.251,23.284 24.192,23.284 C24.192,23.284 18.49,23.284 18.49,23.284 C18.49,23.284 16.698,23.284 16.698,23.284 C16.698,23.284 19.405,31.182 19.405,31.182 C19.405,31.182 17.27,30.998 17.27,30.998 C17.27,30.998 15.634,28.661 15.634,28.661 C15.634,28.661 14.001,26.328 14.001,26.328 C14.001,26.328 11.869,23.284 11.869,23.284 C11.869,23.284 9.20500000000004,23.284 9.20500000000004,23.284 C9.20500000000004,23.284 5.94799999999998,23.284 5.94799999999998,23.284 C5.21400000000006,23.284 4.61800000000005,22.62 4.61800000000005,21.8 C4.61800000000005,20.98 5.21400000000006,20.316 5.94799999999998,20.316 C5.94799999999998,20.316 9.20500000000004,20.316 9.20500000000004,20.316 C9.20500000000004,20.316 12.127,20.316 12.127,20.316 C12.127,20.316 14.005,17.73 14.005,17.73 C14.005,17.73 15.704,15.391 15.704,15.391 C15.704,15.391 17.269,13.238 17.269,13.238 C17.269,13.238 19.677,13.054 19.677,13.054 C19.677,13.054 16.877,20.317 16.877,20.317 C16.877,20.317 18.49,20.317 18.49,20.317 C18.49,20.317 24.192,20.317 24.192,20.317 C24.245,20.317 24.296,20.319 24.345,20.326 C24.345,20.326 26.197,17.723 26.197,17.723 C26.197,17.723 27.65,17.723 27.65,17.723 C27.65,17.723 26.4589999999999,21.051 26.4589999999999,21.051 ZM21.933,10.488 C21.933,10.488 18.677,10.488 18.677,10.488 C18.677,10.488 16.0119999999999,10.488 16.0119999999999,10.488 C16.0119999999999,10.488 13.88,13.532 13.88,13.532 C13.88,13.532 12.248,15.865 12.248,15.865 C12.248,15.865 10.611,18.201 10.611,18.201 C10.611,18.201 8.476,18.386 8.476,18.386 C8.476,18.386 11.183,10.488 11.183,10.488 C11.183,10.488 9.39099999999996,10.488 9.39099999999996,10.488 C9.39099999999996,10.488 3.69000000000005,10.488 3.69000000000005,10.488 C3.63099999999997,10.488 3.57299999999998,10.484 3.51800000000003,10.475 C3.51800000000003,10.475 1.577,13.324 1.577,13.324 C1.577,13.324 0.30799999999999,13.324 0.30799999999999,13.324 C0.30799999999999,13.324 1.42200000000003,9.91999999999999 1.42200000000003,9.91999999999999 C1.42200000000003,9.91999999999999 1.42200000000003,9.251 1.42200000000003,9.251 C1.42200000000003,9.251 1.42200000000003,8.48599999999999 1.42200000000003,8.48599999999999 C1.42200000000003,8.48599999999999 1.42200000000003,8.255 1.42200000000003,8.255 C1.42200000000003,8.255 0.23099999999999,4.92699999999999 0.23099999999999,4.92699999999999 C0.23099999999999,4.92699999999999 1.68399999999997,4.92699999999999 1.68399999999997,4.92699999999999 C1.68399999999997,4.92699999999999 3.53599999999994,7.53 3.53599999999994,7.53 C3.58500000000004,7.523 3.63599999999997,7.52099999999999 3.68899999999996,7.52099999999999 C3.68899999999996,7.52099999999999 9.39099999999996,7.52099999999999 9.39099999999996,7.52099999999999 C9.39099999999996,7.52099999999999 11.004,7.52099999999999 11.004,7.52099999999999 C11.004,7.52099999999999 8.20399999999995,0.25800000000001 8.20399999999995,0.25800000000001 C8.20399999999995,0.25800000000001 10.612,0.44200000000001 10.612,0.44200000000001 C10.612,0.44200000000001 12.177,2.595 12.177,2.595 C12.177,2.595 13.877,4.934 13.877,4.934 C13.877,4.934 15.754,7.52000000000001 15.754,7.52000000000001 C15.754,7.52000000000001 18.677,7.52000000000001 18.677,7.52000000000001 C18.677,7.52000000000001 21.933,7.52000000000001 21.933,7.52000000000001 C22.668,7.52000000000001 23.263,8.184 23.263,9.00399999999999 C23.263,9.82400000000001 22.668,10.488 21.933,10.488 Z "/></svg>

<svg baseProfile="full" xmlns="http://www.w3.org/2000/svg" height="32" width="28"><path fill="rgb( 255, 102, 0 )" d="M26.459 21.051v1.665l1.115 3.404h-1.27l-1.941-2.849-.171.013h-7.494l2.707 7.898-2.135-.184-1.636-2.337-1.633-2.333-2.132-3.044h-5.921c-.734 0-1.33-.664-1.33-1.484s.596-1.484 1.33-1.484h6.179l1.878-2.586 1.699-2.339 1.565-2.153 2.408-.184-2.8 7.263h7.3149999999999995l.153.009 1.852-2.603h1.453l-1.191 3.328zm-4.526-10.563h-5.920999999999999l-2.132 3.044-1.632 2.333-1.637 2.336-2.135.185 2.707-7.898h-7.492999999999999l-.172-.013-1.941 2.849h-1.269l1.114-3.404v-1.6650000000000003l-1.191-3.328h1.453l1.852 2.603.153-.009h7.3149999999999995l-2.8-7.263 2.408.184 1.565 2.153 1.7 2.339 1.877 2.586h6.179c.735 0 1.33.664 1.33 1.484s-.595 1.484-1.33 1.484z"/></svg>
